assets/img/braze_icons/lightning-02.svg

<svg fill="none" height="24" viewBox="0 0 24 24" width="24" xmlns="http://www.w3.org/2000/svg"><path d="m8.4944 1.00012-.03499-.000249c-.12686-.001253-.38997-.003851-.63953.082229-.21019.0725-.40163.19082-.56047.34639-.1886.18472-.30395.42122-.35956.53524l-.01542.0314-4.21415 8.42827c-.08332.1665-.17355.3469-.23565.5059-.06512.1667-.15952.4517-.10954.7901.06031.4081.28608.7734.62418 1.0099.28025.196.57745.2391.75566.2554.16998.0155.37162.0155.55784.0154h4.89317l-2.6138 8.7127c-.13261.442.05451.9174.45287 1.1505.39835.233.90445.1632 1.2248-.169l12.21879-12.6713c.1832-.19004.3645-.37797.4974-.54279.12-.14893.3561-.45805.384-.88144.0313-.47529-.165-.9372-.5288-1.24456-.3242-.2738-.7106-.31842-.9011-.33539-.2109-.01879-.472-.01875-.736-.01871l-5.7111.00001 1.7433-4.64888c.1152-.3071.0724-.65114-.1144-.92072-.1868-.26957-.494-.4304-.8219-.4304z" fill="#801ed7"/></svg>

<svg width="24" height="24" viewBox="0 0 24 24" fill="none" xmlns="http://www.w3.org/2000/svg">
<path d="M8.4944 1.00012L8.45941 0.999871C8.33255 0.998618 8.06944 0.99602 7.81988 1.0821C7.60969 1.1546 7.41825 1.27292 7.25941 1.42849C7.07081 1.61321 6.95546 1.84971 6.89985 1.96373L6.88443 1.99513L2.67028 10.4234C2.58696 10.5899 2.49673 10.7703 2.43463 10.9293C2.36951 11.096 2.27511 11.381 2.32509 11.7194C2.3854 12.1275 2.61117 12.4928 2.94927 12.7293C3.22952 12.9253 3.52672 12.9684 3.70493 12.9847C3.87491 13.0002 4.07655 13.0002 4.26277 13.0001L9.15594 13.0001L6.54214 21.7128C6.40953 22.1548 6.59665 22.6302 6.99501 22.8633C7.39336 23.0963 7.89946 23.0265 8.21981 22.6943L20.4386 10.023C20.6218 9.83296 20.8031 9.64503 20.936 9.48021C21.056 9.33128 21.2921 9.02216 21.32 8.59877C21.3513 8.12348 21.155 7.66157 20.7912 7.35421C20.467 7.08041 20.0806 7.03579 19.8901 7.01882C19.6792 7.00003 19.4181 7.00007 19.1541 7.00011L13.443 7.00012L15.1863 2.35124C15.3015 2.04414 15.2587 1.7001 15.0719 1.43052C14.8851 1.16095 14.5779 1.00012 14.25 1.00012H8.4944Z" fill="#801ED7"/>
</svg>
